packages/core/src/svgs/tokens/branded/SOURCE.svg

<svg width="24" height="24" viewBox="0 0 24 24" fill="none" xmlns="http://www.w3.org/2000/svg">
<path d="M11.8562 11.4875C10.9563 10.6937 9.15627 8.84372 9.15627 7.81248C9.15627 6.52498 10.5062 5.74999 12.625 5.74999C13.4125 5.74999 14 6.38123 14.8 7.23747L15.3499 7.81248C16.45 8.94372 16.7687 9.09379 17.6563 9.09379C18.5437 9.09379 19.4999 8.76247 19.4999 6.56248C19.4999 4.34998 16.0687 2 11.8562 2C7.64999 2 4.5 5.37498 4.5 7.62498C4.5 9.88741 7.62499 12.1125 11.8562 11.4875ZM12.1438 12.5124C13.0437 13.3062 14.8437 15.1562 14.8437 16.1874C14.8437 17.475 12.4813 18.0625 11.5313 18.0625C10.5812 18.0625 9.74995 17.3125 8.64999 16.1874C7.54999 15.0562 7.23124 14.9063 6.34375 14.9063C5.45625 14.9063 4.5 15.2374 4.5 17.4375C4.5 19.6499 7.93124 22 12.1438 22C16.3499 22 19.4999 18.625 19.4999 16.3749C19.4999 14.1125 16.375 11.8875 12.1438 12.5124Z" fill="url(#paint0_linear_364_10513)"/>
<defs>
<linearGradient id="paint0_linear_364_10513" x1="12" y1="2" x2="12" y2="22" gradientUnits="userSpaceOnUse">
<stop stop-color="#ED69FF"/>
<stop offset="1" stop-color="#7B61F4"/>
</linearGradient>
</defs>
</svg>

<svg xmlns="http://www.w3.org/2000/svg" width="24" height="24" fill="none" viewBox="0 0 24 24">
    <path fill="url(#SOURCE__a)" d="M11.856 11.488c-.9-.794-2.7-2.644-2.7-3.676 0-1.287 1.35-2.062 3.469-2.062.787 0 1.375.631 2.175 1.487l.55.575c1.1 1.132 1.419 1.282 2.306 1.282.888 0 1.844-.332 1.844-2.532C19.5 4.35 16.069 2 11.856 2 7.65 2 4.5 5.375 4.5 7.625c0 2.262 3.125 4.488 7.356 3.863m.288 1.024c.9.794 2.7 2.644 2.7 3.675 0 1.288-2.363 1.875-3.313 1.875s-1.781-.75-2.881-1.875c-1.1-1.13-1.419-1.28-2.306-1.28-.888 0-1.844.33-1.844 2.53C4.5 19.65 7.931 22 12.144 22c4.206 0 7.356-3.375 7.356-5.625 0-2.262-3.125-4.488-7.356-3.863"/>
    <defs>
        <linearGradient id="SOURCE__a" x1="12" x2="12" y1="2" y2="22" gradientUnits="userSpaceOnUse">
            <stop stop-color="#ED69FF"/>
            <stop offset="1" stop-color="#7B61F4"/>
        </linearGradient>
    </defs>
</svg>
